X: 07098
T: PRESTOPINO'S POLKA
C: Bob McQuillen 28 June 89
B: Bob's Note Book 7 #98
%R: polka, reel
Z: 2020 John Chambers <jc:trillian.mit.edu>
M: C
L: 1/8
K: G
E2 \
| D3E D2GA | BAGE D2G2 | FEFG A2F2 | GFGA B2G2 |\
| D3E D2GA | BAGE D2B2 | cBAG FGAc | B2G2 G2 :|
|: D2 \
| E2cc c2E2 | D2BB B2d2 | cBAG ABcd | e2dd d2D2 |\
| E2cc c2E2 | D2BB B2GB | AGAB cAFG | A2G2 G2 :|
%%begintext align
%% New England Tradition
%% was always so happy to have Paul Prestopino
%% sit in with us when he'd show up at a dance.
%% Nowadays, I look forward to the next time our paths
%% cross, and we get to play a few tunes together- truly it's
%% always such a pleasure to
%% play music with you, Paul!
%%endtext

%%sep 1 1 500

%%sep 1 1 500

